uploads/global/logo-miles.svg

<svg height="75" viewBox="0 0 212 75" width="212" xmlns="http://www.w3.org/2000/svg"><path d="m91.9794859 15.063572c-.5487835 1.9112155-1.1435782 4.1411487-1.7839373 6.6904547-.4735128 1.879562-2.3928033 9.8922591-2.4680739 10.2125051-.5366608 2.3183783-1.0573135 4.6402686-1.5619223 6.9655125-.3189511 1.4632641-.6316483 2.9121204-.9416652 4.3485337-.3429491 1.5922537-.6836404 3.1849711-1.0220729 4.7781477-.6121587 2.8722806-1.2106824 5.747321-1.7955517 8.6250283-.5049922 2.4864666-1.005234 4.9738526-1.500723 7.4621448-.2501577.9764554-.362282 1.4060696-.7131729 1.8420144-.352231.4344168-1.1636801.9544071-2.0533035 1.0054893-.2233551.0133163-.4913812.0061124-.8051952-.0183372-.3138139-.0255411-.6749791-.0925591-1.0846124-.1995261-1.0899729-.2859728-2.342995-.2885924-3.3867335-.5771849-1.0475354-.2872826-2.3021211-.315225-3.1774497-.7668875-.8777856-.4503526-1.8299484-.724319-2.386326-1.3927532-.5550375-.6645048-.154115-2.4150516-.2182179-3.417048-.0279194-.4344168.0703568-1.7079783.134013-2.105939.1583588-1.7127808.4237047-3.8591053.7951442-6.4361354.3712162-2.5783398.8203833-5.3673391 1.3423642-8.3704906.5455297-3.1290418 1.1168161-6.253742 1.7138037-9.3737968.2845545-1.4973189 1.5134543-7.8249593 1.8399994-9.4794541.6086427-3.0714793 1.2061176-5.9589318 1.7928715-8.6577732.5869772-2.6988414 1.1333038-5.0045248 1.6371929-6.91224744.3714396-1.15764427.8103324-1.98063482 1.3155616-2.46875335.5054526-.48942834 1.2023206-.75837379 2.0928374-.80945596.5782664-.03405478 1.2865254.04627957 2.1261173.23620047.8371349.1921039 4.5401392.60119787 5.2982065.5575379.9660108-.05719457 4.0936524.5479327 4.0936524.5479327.9278171.55862939 1.1051611 1.12708228 1.5185914 1.64925559.4120902.52239162.1072104 1.68003589.1556785 2.42007249.040874.6538081-.7439959 2.8036254-.9570766 3.6449531zm33.6642841 34.4659037s.454686 3.7770221.336676 6.1206881c-.074191 1.4418697-.823902 4.6161662-1.283578 4.9864025-.460977.3739475-1.314816.7677602-2.563251 1.187114 0 0-16.427062 4.4574623-16.970907 4.5532959-.543627.0973617-3.188661.9103099-4.543826.515624-4.6164978-1.338614-6.5254861-6.1551794-6.9211674-6.8637803-.3943796-.708601-.624109-1.5551674-.6855003-2.543192-.0190899-.2988523-.0151852-.612549.0073756-.937379.0238624-.32483.0878568-.7035801.1922004-1.1417077l-.0564019.1329446c.2360204-1.865153 1.8912001-11.481038 2.4463252-14.2270304.5763945-2.8514674 1.1800678-5.697282 1.8109358-8.5370478.2876499-1.3054324.5792044-2.5958022.8742299-3.8752569.0577035-.2497349 2.4990397-10.2779882 3.1975557-12.839299.698082-2.5602193 1.356249-4.8707037 1.975369-6.93276305.756003-1.98216161 1.924174-3.02039515 3.500174-3.11513724 1.049943-.06265202 2.28059.10216428 3.689987.49095611 1.408964.39119312 2.748944.91402099 4.021241 1.5697934 1.269694.65708221 2.35977 1.37681644 3.265238 2.16291378.905468.7850059 1.382715 1.5649908 1.43044 2.3362438.022127.3366873-.001078.6748396-.068984 1.0052703-.0679.3272313-.196105.7332688-.385703 1.219204l.061609-.0689827c-.733443 2.3696436-1.514609 4.9888039-2.347188 7.8590088-.834098 2.8704232-1.657783 5.8796851-2.471707 9.0280039-.829271 3.1985014-1.641831 6.4013666-2.437648 9.6084629-.788912 3.1739653-1.558812 6.3526854-2.309659 9.5359874 1.647804-.3567018 3.262852-.7112206 4.847746-1.0642113 1.581424-.3518991 4.591551-1.2499842 6.519413-1.3656831 1.093763-.0639618 4.29262-.9397804 4.869005 1.199557zm31.810517-32.2747983c-.381837 1.1777614-.751846 2.3593329-1.10997 3.5445355-.108381.3580118-1.433803 4.6903916-1.884552 6.0517098 2.000204-.3248426 4.013363-.5639537 6.033967-.7166786l.486293-.0266326c1.346576-.07575 2.426235.056758 3.241594.3929399.814052.3372733 1.616109.6433298 2.197481 1.6721772 0 0 .96997 2.1565847 1.259348 3.0107922.289595.8555173.535359 2.5770303.559128 2.9590551.10838 1.7468358-1.576638 2.309613-2.666982 2.7119397-.671216.2471155-9.433661 1.7529482-10.798772 2.0566033-1.636014.3634076-3.264055.7618965-4.882999 1.195192-.314455.8675238-.701746 3.7204852-1.007042 4.7349248-.305296 1.0157494-.602524 1.9819448-.64483 2.7492689 1.744333-.3927215 8.203752-1.8902588 10.270609-2.1891114 1.597573-.2300881 3.436984-1.0238265 4.773092-.2468971 2.383929 1.3879507 3.011532 3.5578517 3.425208 4.7157144 0 0 1.451031 3.1216885.984581 5.2143114-.214143.9565901-.529907 1.5180575-1.013584 1.9275881-.486294.4084391-1.392806.7784574-2.722154 1.1061256-2.442372.6313233-12.428619 3.1854321-13.078682 3.3517766-1.136575.2927402-3.683184.7251923-3.683184.7251923-1.280282.367617-3.225675.737417-4.107109.7867528-1.021435.056758-1.922714-.0203019-2.704927-.2324894-.783739-.2119692-7.961913-4.0638709-8.178674-6.4095033-.079377-.853116-1.108662-1.6023213-1.182805-2.7036443-.042235-.639571-.015182-1.2818398.080685-1.9155816 0 0 4.687173-21.6540402 7.40562-34.2178543.145234-.6662513 1.838321-8.49404906 1.889567-8.73243255.212835-.97951164.826045-1.43488523.826045-1.43488523 1.509037-1.36022668 2.738073-2.01207018 4.914618-2.57812181 1.544801-.40254502 14.005039-1.80861467 15.240618-2.02538647 2.486857-.4350717 9.496028-1.42768134 11.220516.04693448.740126.63241481 1.519941 1.2975746 2.01016 2.3733565l-.002835-.06374357c.528599.94807647.90673 1.7348293 1.135266 2.35763891.227228.62542922-.260374 1.38816906-.074143 2.09895354 0 0 .280218 1.0469663.319907 1.638559.07676 1.1421451-.148069 1.9625161-.673833 2.4589301-.527291.4977238-1.550252.8723264-3.071282 1.1264275-2.398322.345787-4.170568.6337246-6.705183 1.0493676-2.534614.4169528-5.227765.8952479-8.080761 1.4364133zm-89.6188724-3.1885206c.9790243 1.3439548 1.351391 2.6743893 1.0767733 3.8493411-.525127 2.2450128-1.2071784 5.2155387-1.9768971 8.5822946-1.1438312 5.0110976-2.2839445 10.0230346-3.4203387 15.0358069-.101694.4466038-.2031689.8921173-.3035479 1.3376308-.1391718.6097188-.7808963 3.4358836-.9614909 4.2318327-1.3678286 6.0191203-2.6216898 11.5196742-3.4628573 15.1393894-.5152644 2.2153555-1.4004847 5.4698063-2.3157311 8.1566254-.8587009 2.5175981-4.7228552 1.4414312-7.3281075.8809958-3.7098599-.7946408-5.9552379-2.536134-5.5589819-5.0846978.4175154-2.6842023.4124746-3.3741703.4940051-4.4058512.0876673-1.1230516 1.4342366-7.5320779 2.0597426-10.3458127 1.128497-5.0711776 4.0283113-15.0109472 3.411572-18.9418457-1.5810793 2.7077536-3.7449268 7.9084637-5.8425855 12.9510743-2.3380862 5.6180927-4.5473015 10.9274008-6.1671736 13.4696406-.12909.2023673-.2393316.4158562-.3497924.6269463-.5880283 1.1267587-1.3189542 2.5215233-4.1948791 2.0943276-4.1900574-.6330522-6.4141762-1.8745148-7.0449422-4.2479698-.7333368-2.7581275-2.9361962-11.9366207-3.2934403-13.4596095-.330944-1.4141727-.661888-2.8274731-.996777-4.2405555-.0111775-.0505918-.0238893-.1011837-.0350669-.1504671 0 0-3.9831626 17.5359596-4.6463655 20.4164233-.2445917 1.0615563-.5479205 2.3464145-.8727277 3.7185-.7296109 3.0867563-1.5569708 6.5843533-2.0435242 8.9663129-.2042648 1.0044225-.6656138 1.7004964-1.3715545 2.0672872-.3160406.1652957-.6732847.2614638-1.0743625.2847971-.7385968.044486-3.61079586-.964952-4.08485664-1.1514004-.81618233-.3196881-4.87079379-3.1853232-5.63174573-3.7420514-1.44563336-1.0563227-1.98851296-3.6740142-1.88813393-5.0561309.13150091-1.8265397.39998194-3.8172849.75108938-6.2461293.15407523-1.070061.43987055-.380093.63054687-1.5338922.28206946-1.7118358.60052083-3.5039209.94790241-5.3439809.57794651-3.0594977 1.23742358-6.2509268 1.94183013-9.4227297.12054251-.5418997.57926152-2.5570685.68709227-3.0211178 1.80156249-7.743168 3.82404652-15.0728785 5.56687194-19.7168603 2.2477889-5.983139 2.9035401-5.9646032 10.8334835-3.8369111 1.1521671.3083485 2.1776551.9280985 3.1693911 1.5242972.3473816.210872.693229.4193452 1.0406106.6105911.3022329.1679126.5654539.3914325.7960188.5874759.2570843.2185044.5216203.4418063.7085708.4753888 5.152644.8700924 5.5364075 3.5468804 5.486218 6.4482786-.0550112 3.2841081.5805765 12.0391129.6469845 13.0869309 1.8958048-3.1371301 4.3868704-8.7340702 6.8014463-14.1630977 2.5789521-5.7942919 5.0150065-11.266497 6.8343216-14.1013844 1.3601578-2.12027778 3.4540906-2.79170997 6.7876388-2.17850201 1.6374055.30006194 3.3263155.47778757 5.0577442.65049764 3.2833586.32339524 7.21151 2.55859497 9.1360259 5.19831127zm137.0279454-10.13335614c7.31767 5.34907708 8.919981 11.35524894 5.210874 19.53819644-1.089889 2.4042065-1.699768 4.1054845-3.396891 4.8027652-1.485451.6095233-3.6165-.1181684-5.525515-.8347819-1.246659-.4672432-4.024851-1.4419156-4.764379-2.7621873-1.13487-2.0271102-.174629-4.2271285.64185-6.35655.37241-.972283 1.167062-1.9930063 1.590626-2.9483461.410996-1.4625517-.765106-2.2134861-2.154202-1.7571039-1.189992.8519423-2.660008 1.934791-3.434154 3.0469646-2.454731 3.5298478-1.690728 7.7167904.721448 11.2468554 1.210498 1.7703545 2.545794 3.484883 3.977225 5.1190396.349258.3990357 1.861609 2.0294996 2.268636 2.4433064.890785.9064649 1.681688 1.819012 2.36874 2.7352519 5.439523 7.2606254 4.327585 14.7256562-5.252106 20.5541409-4.143035 2.5212888-8.025227 5.2248264-13.37898 3.8839187-5.811713-1.4538628-10.205005-4.7988552-12.814962-9.7232645-1.878367-3.5420122-.657505-7.4237587 1.616202-10.6336394 1.314791-1.8555052 3.357203-1.5661663 4.878594.1144757 1.53925 1.7021469 2.70102 3.7839969 4.46892 5.2067971 1.25173 1.0072556 3.578135 2.3155801 4.895351 1.7471117 1.09496.2726129.84338-3.6054408.163164-4.8792272-.905338-1.6901997-1.941207-3.3169708-3.019631-4.9244092-1.222404-1.8203153-2.499711-3.6139125-3.701389-5.4463922-1.698446-2.5881931-2.790981-5.3416916-3.317294-8.1208222-.268338-1.4104186-.286418-6.1145653-.151478-7.0416663.961343-6.5707302 4.991486-12.62794908 11.510756-16.26358372.337572-.1898515 1.631636-.83717129 1.935915-.97467244 4.815533-2.17330014 9.506708-2.8253988 13.606085 1.42714463.300309.31279882.698297.53914352 1.056595.80067809z" fill-rule="evenodd"/></svg>

<?xml version="1.0" encoding="UTF-8"?>
<svg width="212px" height="75px" viewBox="0 0 212 75" version="1.1" xmlns="http://www.w3.org/2000/svg" xmlns:xlink="http://www.w3.org/1999/xlink">
    <!-- Generator: Sketch 52.5 (67469) - http://www.bohemiancoding.com/sketch -->
    <title>miles_logo</title>
    <desc>Created with Sketch.</desc>
    <g id="Page-1" stroke="none" stroke-width="1" fill="none" fill-rule="evenodd">
        <g id="logo-miles" transform="translate(-7.000000, -6.000000)" fill="#000000">
            <g id="miles_logo" transform="translate(7.000000, 6.000000)">
                <path d="M91.9794859,15.063572 C91.4307024,16.9747875 90.8359077,19.2047207 90.1955486,21.7540267 C89.7220358,23.6335887 87.8027453,31.6462858 87.7274747,31.9665318 C87.1908139,34.2849101 86.6701612,36.6068004 86.1655524,38.9320443 C85.8466013,40.3953084 85.5339041,41.8441647 85.2238872,43.280578 C84.8809381,44.8728317 84.5402468,46.4655491 84.2018143,48.0587257 C83.5896556,50.9310063 82.9911319,53.8060467 82.4062626,56.683754 C81.9012704,59.1702206 81.4010286,61.6576066 80.9055396,64.1458988 C80.6553819,65.1223542 80.5432576,65.5519684 80.1923667,65.9879132 C79.8401357,66.42233 79.0286866,66.9423203 78.1390632,66.9934025 C77.9157081,67.0067188 77.647682,66.9995149 77.333868,66.9750653 C77.0200541,66.9495242 76.6588889,66.8825062 76.2492556,66.7755392 C75.1592827,66.4895664 73.9062606,66.4869468 72.8625221,66.1983543 C71.8149867,65.9110717 70.560401,65.8831293 69.6850724,65.4314668 C68.8072868,64.9811142 67.855124,64.7071478 67.2987464,64.0387136 C66.7437089,63.3742088 67.1446314,61.623662 67.0805285,60.6216656 C67.0526091,60.1872488 67.1508853,58.9136873 67.2145415,58.5157266 C67.3729003,56.8029458 67.6382462,54.6566213 68.0096857,52.0795912 C68.3809019,49.5012514 68.830069,46.7122521 69.3520499,43.7091006 C69.8975796,40.5800588 70.468866,37.4553586 71.0658536,34.3353038 C71.3504081,32.8379849 72.5793079,26.5103445 72.905853,24.8558497 C73.5144957,21.7843704 74.1119706,18.8969179 74.6987245,16.1980765 C75.2857017,13.4992351 75.8320283,11.1935517 76.3359174,9.28582906 C76.707357,8.12818479 77.1462498,7.30519424 77.651479,6.81707571 C78.1569316,6.32764737 78.8537996,6.05870192 79.7443164,6.00761975 C80.3225828,5.97356497 81.0308418,6.05389932 81.8704337,6.24382022 C82.7075686,6.43592412 86.4105729,6.84501809 87.1686402,6.80135812 C88.134651,6.74416355 91.2622926,7.34929082 91.2622926,7.34929082 C92.1901097,7.90792021 92.3674537,8.4763731 92.780884,8.99854641 C93.1929742,9.52093803 92.8880944,10.6785823 92.9365625,11.4186189 C92.9774365,12.072427 92.1925666,14.2222443 91.9794859,15.063572 Z M125.64377,49.5294757 C125.64377,49.5294757 126.098456,53.3064978 125.980446,55.6501638 C125.906255,57.0920335 125.156544,60.26633 124.696868,60.6365663 C124.235891,61.0105138 123.382052,61.4043265 122.133617,61.8236803 C122.133617,61.8236803 105.706555,66.2811426 105.16271,66.3769762 C104.619083,66.4743379 101.974049,67.2872861 100.618884,66.8926002 C96.0023862,65.5539862 94.0933979,60.7374208 93.6977166,60.0288199 C93.303337,59.3202189 93.0736076,58.4736525 93.0122163,57.4856279 C92.9931264,57.1867756 92.9970311,56.8730789 93.0195919,56.5482489 C93.0434543,56.2234189 93.1074487,55.8446688 93.2117923,55.4065412 L93.1553904,55.5394858 C93.3914108,53.6743328 95.0465905,44.0584478 95.6017156,41.3124554 C96.1781101,38.460988 96.7817834,35.6151734 97.4126514,32.7754076 C97.7003013,31.4699752 97.9918558,30.1796054 98.2868813,28.9001507 C98.3445848,28.6504158 100.785921,18.6221625 101.484437,16.0608517 C102.182519,13.5006324 102.840686,11.190148 103.459806,9.12808865 C104.215809,7.14592704 105.38398,6.1076935 106.95998,6.01295141 C108.009923,5.95029939 109.24057,6.11511569 110.649967,6.50390752 C112.058931,6.89510064 113.398911,7.41792851 114.671208,8.07370092 C115.940902,8.73078313 117.030978,9.45051736 117.936446,10.2366147 C118.841914,11.0216206 119.319161,11.8016055 119.366886,12.5728585 C119.389013,12.9095458 119.365808,13.2476981 119.297902,13.5781288 C119.230002,13.9053601 119.101797,14.3113976 118.912199,14.7973328 L118.973808,14.7283501 C118.240365,17.0979937 117.459199,19.717154 116.62662,22.5873589 C115.792522,25.4577821 114.968837,28.467044 114.154913,31.6153628 C113.325642,34.8138642 112.513082,38.0167294 111.717265,41.2238257 C110.928353,44.397791 110.158453,47.5765111 109.407606,50.7598131 C111.05541,50.4031113 112.670458,50.0485925 114.255352,49.6956018 C115.836776,49.3437027 118.846903,48.4456176 120.774765,48.3299187 C121.868528,48.2659569 125.067385,47.3901383 125.64377,49.5294757 Z M157.454287,17.2546774 C157.07245,18.4324388 156.702441,19.6140103 156.344317,20.7992129 C156.235936,21.1572247 154.910514,25.4896045 154.459765,26.8509227 C156.459969,26.5260801 158.473128,26.286969 160.493732,26.1342441 L160.980025,26.1076115 C162.326601,26.0318615 163.40626,26.1643695 164.221619,26.5005514 C165.035671,26.8378247 165.837728,27.1438812 166.4191,28.1727286 C166.4191,28.1727286 167.38907,30.3293133 167.678448,31.1835208 C167.968043,32.0390381 168.213807,33.7605511 168.237576,34.1425759 C168.345956,35.8894117 166.660938,36.4521889 165.570594,36.8545156 C164.899378,37.1016311 156.136933,38.6074638 154.771822,38.9111189 C153.135808,39.2745265 151.507767,39.6730154 149.888823,40.1063109 C149.574368,40.9738347 149.187077,43.8267961 148.881781,44.8412357 C148.576485,45.8569851 148.279257,46.8231805 148.236951,47.5905046 C149.981284,47.1977831 156.440703,45.7002458 158.50756,45.4013932 C160.105133,45.1713051 161.944544,44.3775667 163.280652,45.1544961 C165.664581,46.5424468 166.292184,48.7123478 166.70586,49.8702105 C166.70586,49.8702105 168.156891,52.991899 167.690441,55.0845219 C167.476298,56.041112 167.160534,56.6025794 166.676857,57.01211 C166.190563,57.4205491 165.284051,57.7905674 163.954703,58.1182356 C161.512331,58.7495589 151.526084,61.3036677 150.876021,61.4700122 C149.739446,61.7627524 147.192837,62.1952045 147.192837,62.1952045 C145.912555,62.5628215 143.967162,62.9326215 143.085728,62.9819573 C142.064293,63.0387153 141.163014,62.9616554 140.380801,62.7494679 C139.597062,62.5374987 132.418888,58.685597 132.202127,56.3399646 C132.12275,55.4868486 131.093465,54.7376433 131.019322,53.6363203 C130.977087,52.9967493 131.00414,52.3544805 131.100007,51.7207387 C131.100007,51.7207387 135.78718,30.0666985 138.505627,17.5028844 C138.650861,16.8366331 140.343948,9.00883534 140.395194,8.77045185 C140.608029,7.79094021 141.221239,7.33556662 141.221239,7.33556662 C142.730276,5.97533994 143.959312,5.32349644 146.135857,4.75744481 C147.680658,4.35489979 160.140896,2.94883014 161.376475,2.73205834 C163.863332,2.29698664 170.872503,1.304377 172.596991,2.77899282 C173.337117,3.41140763 174.116932,4.07656742 174.607151,5.15234932 L174.604316,5.08860575 C175.132915,6.03668222 175.511046,6.82343505 175.739582,7.44624466 C175.96681,8.07167388 175.479208,8.83441372 175.665439,9.5451982 C175.665439,9.5451982 175.945657,10.5921645 175.985346,11.1837572 C176.062106,12.3259023 175.837277,13.1462733 175.311513,13.6426873 C174.784222,14.1404111 173.761261,14.5150137 172.240231,14.7691148 C169.841909,15.1149018 168.069663,15.4028394 165.535048,15.8184824 C163.000434,16.2354352 160.307283,16.7137303 157.454287,17.2548957 L157.454287,17.2546774 Z M67.8354146,14.0661568 C68.8144389,15.4101116 69.1868056,16.7405461 68.9121879,17.9154979 C68.3870609,20.1605107 67.7050095,23.1310366 66.9352908,26.4977925 C65.7914596,31.5088901 64.6513463,36.5208271 63.5149521,41.5335994 C63.4132581,41.9802032 63.3117832,42.4257167 63.2114042,42.8712302 C63.0722324,43.480949 62.4305079,46.3071138 62.2499133,47.1030629 C60.8820847,53.1221832 59.6282235,58.6227371 58.787056,62.2424523 C58.2717916,64.4578078 57.3865713,67.7122586 56.4713249,70.3990777 C55.612624,72.9166758 51.7484697,71.8405089 49.1432174,71.2800735 C45.4333575,70.4854327 43.1879795,68.7439395 43.5842355,66.1953757 C44.0017509,63.5111734 43.9967101,62.8212054 44.0782406,61.7895245 C44.1659079,60.6664729 45.5124772,54.2574466 46.1379832,51.4437118 C47.2664802,46.3725342 50.1662945,36.4327646 49.5495552,32.5018661 C47.9684759,35.2096197 45.8046284,40.4103298 43.7069697,45.4529404 C41.3688835,51.0710331 39.1596682,56.3803412 37.5397961,58.922581 C37.4107061,59.1249483 37.3004645,59.3384372 37.1900037,59.5495273 C36.6019754,60.676286 35.8710495,62.0710506 32.9951246,61.6438549 C28.8050672,61.0108027 26.5809484,59.7693401 25.9501824,57.3958851 C25.2168456,54.6377576 23.0139862,45.4592644 22.6567421,43.9362756 C22.3257981,42.5221029 21.9948541,41.1088025 21.6599651,39.6957201 C21.6487876,39.6451283 21.6360758,39.5945364 21.6248982,39.545253 C21.6248982,39.545253 17.6417356,57.0812126 16.9785327,59.9616763 C16.733941,61.0232326 16.4306122,62.3080908 16.105805,63.6801763 C15.3761941,66.7669326 14.5488342,70.2645296 14.0622808,72.6464892 C13.858016,73.6509117 13.396667,74.3469856 12.6907263,74.7137764 C12.3746857,74.8790721 12.0174416,74.9752402 11.6163638,74.9985735 C10.877767,75.0430595 8.00556794,74.0336215 7.53150716,73.8471731 C6.71532483,73.527485 2.66071337,70.6618499 1.89976143,70.1051217 C0.454128071,69.048799 -0.0887515276,66.4311075 0.0116275019,65.0489908 C0.143128414,63.2224511 0.411609443,61.2317059 0.762716878,58.8028615 C0.916792113,57.7328005 1.20258743,58.4227685 1.39326375,57.2689693 C1.67533321,55.5571335 1.99378458,53.7650484 2.34116616,51.9249884 C2.91911267,48.8654907 3.57858974,45.6740616 4.28299629,42.5022587 C4.4035388,41.960359 4.86225781,39.9451902 4.97008856,39.4811409 C6.77165105,31.7379729 8.79413508,24.4082624 10.5369605,19.7642806 C12.7847494,13.7811416 13.4405006,13.7996774 21.370444,15.9273695 C22.5226111,16.235718 23.5480991,16.855468 24.5398351,17.4516667 C24.8872167,17.6625387 25.2330641,17.8710119 25.5804457,18.0622578 C25.8826786,18.2301704 26.1458996,18.4536903 26.3764645,18.6497337 C26.6335488,18.8682381 26.8980848,19.09154 27.0850353,19.1251225 C32.2376793,19.9952149 32.6214428,22.6720029 32.5712533,25.5734011 C32.5162421,28.8575092 33.1518298,37.612514 33.2182378,38.660332 C35.1140426,35.5232019 37.6051082,29.9262618 40.0196841,24.4972343 C42.5986362,18.7029424 45.0346906,13.2307373 46.8540057,10.3958499 C48.2141635,8.27557212 50.3080963,7.60413993 53.6416445,8.21734789 C55.27905,8.51740983 56.96796,8.69513546 58.6993887,8.86784553 C61.9827473,9.19124077 65.9108987,11.4264405 67.8354146,14.0661568 Z M204.86336,3.93280066 C212.18103,9.28187774 213.783341,15.2880496 210.074234,23.4709971 C208.984345,25.8752036 208.374466,27.5764816 206.677343,28.2737623 C205.191892,28.8832856 203.060843,28.1555939 201.151828,27.4389804 C199.905169,26.9717372 197.126977,25.9970648 196.387449,24.6767931 C195.252579,22.6496829 196.21282,20.4496646 197.029299,18.3202431 C197.401709,17.3479601 198.196361,16.3272368 198.619925,15.371897 C199.030921,13.9093453 197.854819,13.1584109 196.465723,13.6147931 C195.275731,14.4667354 193.805715,15.5495841 193.031569,16.6617577 C190.576838,20.1916055 191.340841,24.3785481 193.753017,27.9086131 C194.963515,29.6789676 196.298811,31.3934961 197.730242,33.0276527 C198.0795,33.4266884 199.591851,35.0571523 199.998878,35.4709591 C200.889663,36.377424 201.680566,37.2899711 202.367618,38.206211 C207.807141,45.4668364 206.695203,52.9318672 197.115512,58.7603519 C192.972477,61.2816407 189.090285,63.9851783 183.736532,62.6442706 C177.924819,61.1904078 173.531527,57.8454154 170.92157,52.9210061 C169.043203,49.3789939 170.264065,45.4972474 172.537772,42.2873667 C173.852563,40.4318615 175.894975,40.7212004 177.416366,42.4018424 C178.955616,44.1039893 180.117386,46.1858393 181.885286,47.6086395 C183.137016,48.6158951 185.463421,49.9242196 186.780637,49.3557512 C187.875597,49.6283641 187.624017,45.7503104 186.943801,44.476524 C186.038463,42.7863243 185.002594,41.1595532 183.92417,39.5521148 C182.701766,37.7317995 181.424459,35.9382023 180.222781,34.1057226 C178.524335,31.5175295 177.4318,28.764031 176.905487,25.9849004 C176.637149,24.5744818 176.619069,19.8703351 176.754009,18.9432341 C177.715352,12.3725039 181.745495,6.31528502 188.264765,2.67965038 C188.602337,2.48979888 189.896401,1.84247909 190.20068,1.70497794 C195.016213,-0.468322203 199.707388,-1.12042086 203.806765,3.13212257 C204.107074,3.44492139 204.505062,3.67126609 204.86336,3.93280066 Z" id="Shape"></path>
            </g>
        </g>
    </g>
</svg>
